X:1
T:Je me veulx tant
T:Etienne du Tertre
T:Source : Livre II de 26 chansons nouvelles à 4 parties---Paris---N.du Chemin---1549. Editor : André Vierendeels (12/02/18) Notes : Original clefs : G2, C2, C3, C4 Original note values have been halved Editorial accidentals above the stave
T:#
T:Je me veulx tant
T:©
T:©
T:©
T:©
C:Etienne du Tertre
Z:©
%%score [ 1 2 3 4 ]
L:1/8
Q:1/4=120
M:2/2
K:C
V:1 treble nm="Soprano 1" snm="S 1"
V:2 treble nm="Soprano 2" snm="S 2"
V:3 treble nm="Alto" snm="A"
V:4 treble-8 nm="Tenor" snm="T"
V:1
 d4 d2 d2 | c2 A2 cBcd | e2 f2 ed d2- | d2 c2 d2 d2 | d2 d2 c4- | c4 z2 d2 | d2 d2 c2 A2 | %7
w: Je me veulx|tant à son _ _ _|_ vou- * * loir|_ of- frir, que|ie ne quiers,|_ que|ie ne quiers re-|
 c2 c2 cBAG | A4 B4 | G2 B2 A2 B2- | B2 A4 G2 | A4 z2 e2 | f2 d2 e2 c2 | d2 f2 e2 c2- | %14
w: mè- de'à ma _ _ _|_ dou-|leur, à ma dou-||leur: sa-|chant qu'el- le'a plai-|sir me veoir souf-|
 c2 B2 c2 c2 | d2 f4 e2 | f2 d4 c2 | _B4 A4 | z2 f4 f2 | d4 d2 d2 | cBcd e2 f2 | ed d4 c2 | %22
w: * * frir, me|veoir souf- *|frir, souf- frir|m'est doulx,|souf- frir|m'est doulx, et|mon _ _ _ _ mal|i'e- * sti- me|
 d4 z2 d2- | d2 c2 _B4 | A4 z2 f2- | f2 f2 d4 | d2 d2 cBcd | e2 f2 ed d2- |"^#" d2 c2 d4 |] %29
w: heur, souf-|* frir m'est|doulx, souf-|* frir m'est|doulx, et mon _ _ _|_ mal i'e- * sti-|* me heur.|
V:2
 F4 A2 A2 | A2 E2 A2 A2 | B2 c3 BAG | A4 F4 | z2 A2 A2 A2 | EFGA B2 B2 | G2 G2 A2 A2 | %7
w: Je me veulx|tant à son vou-|loir of- * * *|* frir,|que ie ne|quiers _ _ _ _ re-|mè- de'à ma dou-|
 E2 z A A2 A2 | E2 E2 G2 G2 | D4 F4- | F2 ED E2 E2 | C2 F2 E2 A2 | A2 G2 E2 A2 | A2 F2 G2 A2 | %14
w: leur, qie ie ne|quiers re- mè- de'à|ma dou-|* * * leur, sa-|chant qu'el- le'a, sa-|chant qu'el- le'a plai-|sir me veoir souf-|
 E2 F2 G2 G2 | A2 F2 G4 |"^b" F2 B4 A2 | G4 F4 |"^b" z2 B4 A2 | G4 F4 | z2 A2 B2 c2 | B2 G2 A4 | %22
w: frir, me _ veoir|souf- * *|frir, souf- frie|m'est doulx,|souf- frir|m'est doulx,|et mon mal|i'e- sti- me|
"^b" F4 z2 B2- | B2 A2 G4 |"^b" F4 z2 B2- | B2 A2 G4 | F4 z2 A2 | B2 c2 B2 G2 | A4 F4 |] %29
w: heu, souf-|* frir m'est|doulx, souf-|* frir m'est|doulx, et|mon mal i'e- sti-|me heur.|
V:3
 D4 F2 F2 | E2 C2 CDEF | G2 A2 GFFE/D/ | E2 E2 D2 F2 | F2 F2 E4 | z2 E2 G2 G2 | D4 F4 | E8 | %8
w: Je me veulx|tant à son _ _ _|_ vou- loir _ _ _ _|_ of- frir, que|ie ne quiers|re- mè- de'à|ma dou-|leur,|
 z2 E2 E2 E2 | B,2 B,2 D2 D2 | C2 B,A, B,2 B,2 | A,2 D2 D2 C2 | D4 z2 E2 | F2 D2 E2 F2 | G2 F4 E2 | %15
w: que ie ne|re- quiers re- mè-|de'à _ _ ma dou-|leur, sa- chant qu'el-|le'a, sa-|chant qu'el- le'a plai-|sir me veoir|
 F4 C4 | z2 F4 F2 | D4 D4 | z2 D4 C2 | _B,4 A,2 A2 | A2 F2 G2 A2 | GFED E4 | D4 z2 F2- | F2 F2 D4 | %24
w: souf- frir,|souf- frir|m'est doulx,|souf- frir|m'est doulx, et|mon mal i'e- sti-|me _ _ _ _|heur, souf-|* frir m'est|
 D4 z2 D2- | D2 C2 _B,4 | A,2 A2 A2 F2 | G2 A2 GFED | E4 D4 |] %29
w: doulx, souf-|* frir m'est|doulx, et mon mal|i'e- sti- me _ _ _|_ heur,|
V:4
 D4 D2 D2 | A4 z2 A2 | G2 F2 c2 d2 | A4 D2 d2 | d2 d2 A2 A2 | c2 c2 G4 | B4 A4- | A4 z2 A2 | %8
w: Je me veulx|tant à|son vou- loir of-|* frir, que|ie ne quiers re-|mè- de'à ma|dou- leur,|_ re-|
 A2 A2 E2 E2 | G2 G2 D4 | F4 E2 E2 | F2 D2 A4 | z2 B2 c2 A2 | d2 d2 c2 F2 | c2 d2 c4 | z8 | %16
w: mè- de'à ma dou-|leur, à ma|dou- leur, sa-|chant qu'el- l'a,|sa- chant qu'el-|me'a plai- sir me|veoir souf- frir,||
"^#" z2 _B4 F2 | G4 D4 |"^b" z2 B4 F2 | G4 DEFG | A2 A2 G2 F2 |"^b" G2 B2 A4 |"^b" D4 z2 B2- | %23
w: souf- frir|m'est doulx,|souf- frir|m'est doulx, _ _ _|_ et mon mal|i'e- sti- me|heur, souf-|
 B2 F2 G4 |"^b" D4 z2 B2- | B2 F2 G4 | DEFG A2 A2 | G2 F2 G2 B2 | A4 D4 |] %29
w: * frir m'est|doulx, souf-|* frir m'est|doulx, _ _ _ _ et|mon mal i'e- sti-|me heur.|

